X:1
T:Title
L:1/8
M:4/4
K:Eb
V:1 treble nm="Grand Piano"
V:1
 z4 z C2 C | G2 G2- G E2 C | A2 A2- A F2 D | B2 B2 A c2 A | G4- G C2 C | G2 G2- G E2 C | %6
 A2 A2- A F2 D | B2 B2- BBAB | c4- c c2 c | c2 c2- c d2 e | c2 B2- B B2 B | B3 B- B c2 d | %12
 B2 A2- A A2 A | A3 A- A =B2 c | d2 G2- G G2 G | G2 F2- F E2 F | G4- G c2 c | c2 c2- c d2 e | %18
 c2 B2- B B2 B | B3 B- B c2 d | B2 A2- A A2 A | A3 A- A =B2 c | d2 G2- G G2 G | e3 d- d c2 =B | %24
 c4- c G2 G | AGFE DDFG | C6 z2 |] %27

